icon/ir/frame-tool.svg

<svg stroke-width="1.5" viewBox="0 0 24 24" fill="none" xmlns="http://www.w3.org/2000/svg" height="1em" width="1em">
  <path d="M2 7H3M2 17H3M21 7H22M21 17H22M17 3V2M7 3V2M17 22V21M7 22V21M18 6.6V17.4C18 17.7314 17.7314 18 17.4 18H6.6C6.26863 18 6 17.7314 6 17.4V6.6C6 6.26863 6.26863 6 6.6 6H17.4C17.7314 6 18 6.26863 18 6.6Z" stroke="currentColor" stroke-linecap="round" stroke-linejoin="round"/>
</svg>

<svg width="24" height="24" stroke-width="1.5" fill="none" xmlns="http://www.w3.org/2000/svg"><path d="M2 7h1M2 17h1M21 7h1m-1 10h1M17 3V2M7 3V2m10 20v-1M7 22v-1M18 6.6v10.8a.6.6 0 0 1-.6.6H6.6a.6.6 0 0 1-.6-.6V6.6a.6.6 0 0 1 .6-.6h10.8a.6.6 0 0 1 .6.6Z" stroke="currentColor" stroke-linecap="round" stroke-linejoin="round"/></svg>
